!!!OTL: Sipan
!!!ARE: Asia, China,ÿShandong, Rizhao
!! III, 394
!!!SCT: C1576C
!!!YEM: Copyright 1995, estate of Helmut Schaffrath.
**kern
*ICvox
*Ivox
*M2/4
*k[f#c#g#d#]
*E:
{8b
8b
16cc#
16b
16cc#
16ee
=1
4.b
16g#
16f#
=2
8.e
16f#
4g#
=3
8.cc#
16b
16g#
16b
16cc#
16ee
=4
8.b
16g#
16f#
16g#
16f#
16e
=5
4c#}
{8b
16g#
16f#
=6
16g#
16f#
8e
16f#
16g#
16f#
16e
=7
4c#
8.b
16cc#
=8
8ee
8ee
8.cc#
16b
=9
16g#
16b
16cc#
16ee
8.b
16g#
=10
4g#}
{8f#
8e
=11
16f#
16e
16f#
16g#
4b
=12
16cc#
16b
16cc#
16ee
8.b
16cc#
=13
8.e
16c#
4e}
=14
{8ee
8g#
16g#
16b
16cc#
16ee
=15
8.b
16g#
16f#
16g#
16f#
16e
=16
8e
8B
8c#
8e
=17
8.f#
16g#
8b
8b
=18
8.g#
16f#
4e}
=19
{4g#
8.f#
16g#
=20
16f#
16e
16c#
16e
4B
=21
8.ee
16cc#
4b}
=22
{8b
16cc#
16b
8g#
8cc#
=23
8.ee
16cc#
8.b
16g#
=24
8b
16g#
16f#
16g#
16f#
8e
=25
16f#
16g#
16f#
16e
4c#}
=26
{8.b
16g#
16g#
16b
16cc#
16ee
=27
4g#
16f#
16g#
16f#
16c#
=28
4e
[4f#
=29
8f#]
8e
4r}
==
!!!AGN: Xiaodiao
!!!AMT: simple duple
!!!AIN: vox
!!!EED: Helmut Schaffrath
!!!EEV: 1.0
*-
!!!ONB: Tied note syntax fixed by Craig Sapp, 2004/05/03/
